icons/ui_menu.svg

<svg width="48" height="48" viewBox="0 0 48 48" fill="none" xmlns="http://www.w3.org/2000/svg">
<path fill-rule="evenodd" clip-rule="evenodd" d="M6 11C6 10.4477 6.44772 10 7 10H41C41.5523 10 42 10.4477 42 11C42 11.5523 41.5523 12 41 12H7C6.44772 12 6 11.5523 6 11Z" fill="black"/>
<path fill-rule="evenodd" clip-rule="evenodd" d="M6 24C6 23.4477 6.44772 23 7 23H41C41.5523 23 42 23.4477 42 24C42 24.5523 41.5523 25 41 25H7C6.44772 25 6 24.5523 6 24Z" fill="black"/>
<path fill-rule="evenodd" clip-rule="evenodd" d="M6 37C6 36.4477 6.44772 36 7 36H41C41.5523 36 42 36.4477 42 37C42 37.5523 41.5523 38 41 38H7C6.44772 38 6 37.5523 6 37Z" fill="black"/>
</svg>

<svg
  xmlns="http://www.w3.org/2000/svg"
  width="24"
  height="24"
  viewBox="0 0 24 24"
  fill="none"
  stroke="currentColor"
  stroke-width="2"
  stroke-linecap="round"
  stroke-linejoin="round"
>
  <path
    fill-rule="evenodd"
    d="M6 11a1 1 0 0 1 1-1h34a1 1 0 1 1 0 2H7a1 1 0 0 1-1-1"
    clip-rule="evenodd"
  />
  <path
    fill-rule="evenodd"
    d="M6 24a1 1 0 0 1 1-1h34a1 1 0 1 1 0 2H7a1 1 0 0 1-1-1"
    clip-rule="evenodd"
  />
  <path
    fill-rule="evenodd"
    d="M6 37a1 1 0 0 1 1-1h34a1 1 0 1 1 0 2H7a1 1 0 0 1-1-1"
    clip-rule="evenodd"
  />
</svg>
